X: 40856
T: Travelling Flute, The
R: jig
M: 6/8
K: Gmajor
B/c/d/|gdB ~G3|FGA c3|B2G c2A|FGA D B/c/d|
gdB ~G3|FGA c3|Bdg eca|fdb g3|
~f3 a2f|B/c/d d gfd|d2B G/A/B G|EAG Fed|
gdB ~G3|FGA c3|Bdg eca|fdb g3|

